img/footer-owl.svg

<svg width="25" height="25" viewBox="0 0 25 25" fill="none" xmlns="http://www.w3.org/2000/svg">
<g clip-path="url(#clip0_96182_7)">
<path d="M17.1779 11.7844C16.3343 11.7844 15.6441 12.449 15.6441 13.2926C15.6441 14.1362 16.3343 14.8263 17.1523 14.8263C17.9959 14.8263 18.6605 14.1362 18.6605 13.3182C18.6861 12.449 18.0214 11.7844 17.1779 11.7844ZM17.1779 14.0595C16.7433 14.0595 16.411 13.7272 16.411 13.2926C16.411 12.858 16.7433 12.5257 17.1779 12.5257C17.6124 12.5257 17.9447 12.8836 17.9447 13.2926C17.9447 13.7272 17.5869 14.0595 17.1779 14.0595Z" fill="#999999"/>
<path d="M7.7965 9.58598C5.77707 9.56042 4.01327 11.2475 4.06439 13.3948C4.08996 15.3886 5.75151 17.1013 7.84762 17.0757C9.89261 17.0502 11.5542 15.3886 11.5542 13.3436C11.5542 11.2731 9.89261 9.58598 7.7965 9.58598ZM7.84762 15.6187C6.49282 15.6698 5.39364 14.5962 5.39364 13.2925C5.39364 11.9633 6.49282 10.9408 7.71981 10.9663C8.99793 10.9663 10.046 11.9888 10.046 13.2925C10.0715 14.5962 9.04905 15.5676 7.84762 15.6187Z" fill="#999999"/>
<path d="M12.5 0C5.59815 0 0 5.59815 0 12.5C0 19.4018 5.59815 25 12.5 25C19.4018 25 25 19.4018 25 12.5C25 5.59815 19.4018 0 12.5 0ZM19.683 17.3568C18.9161 17.8425 18.0726 18.0726 17.1779 18.0726C16.7945 18.0726 16.411 18.0215 16.0532 17.9192C15.1585 17.6891 14.3916 17.229 13.7525 16.5644C13.6759 16.4877 13.5992 16.3855 13.4969 16.2832C13.1646 16.7945 12.8323 17.2801 12.5 17.7914C12.1677 17.2801 11.8354 16.7945 11.5031 16.3088C11.4775 16.3088 11.4775 16.3343 11.4775 16.3343L11.4519 16.3599C10.6851 17.2801 9.71369 17.817 8.53782 18.0215C7.8732 18.1237 7.23414 18.0981 6.59509 17.9192C5.7004 17.6636 4.93353 17.2035 4.29447 16.4877C3.68098 15.7975 3.3231 15.0051 3.16973 14.0849C3.01636 13.2413 3.19529 12.4233 3.24642 12.2188C3.39979 11.6309 3.62985 11.1196 3.98773 10.6339C4.01329 10.6084 4.01329 10.5317 4.01329 10.5061C3.88548 9.99488 3.62985 9.53475 3.34867 9.07463C3.27198 8.97238 3.19529 8.87013 3.11861 8.74232V8.71676C3.14417 8.71676 3.14417 8.71676 3.16973 8.71676C4.11554 8.71676 5.06134 8.71676 6.00715 8.71676C6.05828 8.71676 6.08384 8.6912 6.13496 8.66564C6.79958 8.23108 7.51533 7.89876 8.25664 7.64314C8.79345 7.4642 9.33026 7.31083 9.89263 7.20858C10.4294 7.10633 10.9662 7.02964 11.5286 7.00408C12.8579 6.90183 13.9315 7.02964 14.6472 7.13189C15.184 7.20858 15.6953 7.33639 16.2065 7.48977C17.1012 7.77095 17.9192 8.15439 18.7116 8.64007C18.7628 8.66564 18.8394 8.6912 18.9161 8.6912C19.8364 8.6912 20.7566 8.6912 21.6769 8.6912C21.7536 8.6912 21.8302 8.6912 21.9069 8.6912C21.9069 8.71676 21.9069 8.71676 21.9069 8.71676C21.8558 8.79345 21.8302 8.84457 21.7791 8.92126C21.4724 9.40694 21.1912 9.89263 21.0378 10.455C21.0122 10.5061 21.0122 10.5572 21.0634 10.6339C21.8814 11.8098 22.137 13.1135 21.8047 14.5194C21.4468 15.7208 20.7566 16.6667 19.683 17.3568Z" fill="#999999"/>
<path d="M7.71982 11.7844C6.90182 11.7844 6.21164 12.4746 6.21164 13.2926C6.21164 14.1362 6.90182 14.8008 7.74538 14.8008C8.56338 14.8008 9.25356 14.1106 9.25356 13.267C9.25356 12.449 8.58894 11.7844 7.71982 11.7844ZM7.74538 14.085C7.31082 14.085 6.95295 13.7527 6.95295 13.2926C6.95295 12.858 7.28526 12.5257 7.71982 12.5257C8.15438 12.5257 8.48669 12.858 8.51225 13.2926C8.53781 13.7272 8.17994 14.0595 7.74538 14.085Z" fill="#999999"/>
<path d="M17.1012 9.61152C15.0562 9.66264 13.4458 11.2986 13.4202 13.3436C13.4202 15.4142 15.1073 17.1268 17.1779 17.1013C19.2484 17.1013 20.9356 15.4397 20.9356 13.3436C20.9356 11.1964 19.1718 9.56039 17.1012 9.61152ZM17.2801 15.6187C15.9253 15.6698 14.8517 14.5962 14.8517 13.2925C14.8517 11.9633 15.9509 10.9408 17.1779 10.9663C18.456 10.9663 19.5041 11.9888 19.5041 13.2925C19.5041 14.5706 18.4816 15.5675 17.2801 15.6187Z" fill="#999999"/>
<path d="M13.9826 9.86723C14.8006 9.10035 15.7975 8.71692 16.9223 8.61467C15.593 8.02674 14.1871 7.77111 12.73 7.74555C11.094 7.71999 9.48361 7.95005 7.97543 8.58911C9.12574 8.6658 10.1227 9.04923 10.9662 9.8161C11.8098 10.583 12.2955 11.5543 12.4744 12.6791C12.6789 11.5799 13.1646 10.6341 13.9826 9.86723Z" fill="#999999"/>
</g>
<defs>
<clipPath id="clip0_96182_7">
<rect width="25" height="25" fill="white"/>
</clipPath>
</defs>
</svg>

<svg width="25" height="25" fill="none" xmlns="http://www.w3.org/2000/svg"><g clip-path="url(#a)" fill="#999"><path d="M17.178 11.784c-.844 0-1.534.665-1.534 1.509 0 .843.69 1.533 1.508 1.533a1.51 1.51 0 0 0 1.508-1.508 1.465 1.465 0 0 0-1.482-1.534Zm0 2.275a.753.753 0 0 1-.767-.766c0-.435.332-.767.767-.767a.77.77 0 0 1 .767.767.769.769 0 0 1-.767.767ZM7.796 9.586c-2.019-.026-3.783 1.662-3.732 3.809.026 1.994 1.688 3.706 3.784 3.68 2.045-.025 3.706-1.686 3.706-3.731a3.747 3.747 0 0 0-3.758-3.758Zm.052 6.033c-1.355.05-2.454-1.023-2.454-2.326 0-1.33 1.099-2.352 2.326-2.327a2.318 2.318 0 0 1 2.326 2.327c.026 1.303-.997 2.275-2.198 2.326Z"/><path d="M12.5 0C5.598 0 0 5.598 0 12.5S5.598 25 12.5 25 25 19.402 25 12.5 19.402 0 12.5 0Zm7.183 17.357a4.6 4.6 0 0 1-2.505.716c-.384 0-.767-.052-1.125-.154a4.808 4.808 0 0 1-2.3-1.355c-.077-.076-.154-.178-.256-.28-.332.51-.665.996-.997 1.507-.332-.51-.665-.997-.997-1.482-.026 0-.026.025-.026.025l-.025.026c-.767.92-1.738 1.457-2.914 1.662a4.526 4.526 0 0 1-1.943-.103 4.753 4.753 0 0 1-2.3-1.431c-.614-.69-.972-1.483-1.125-2.403-.154-.844.025-1.662.076-1.866.154-.588.384-1.1.742-1.585.025-.026.025-.102.025-.128-.128-.511-.383-.971-.664-1.431-.077-.103-.154-.205-.23-.333v-.025h2.888c.051 0 .077-.026.128-.051a9.543 9.543 0 0 1 2.122-1.023 11.853 11.853 0 0 1 1.636-.434 11.443 11.443 0 0 1 1.636-.205c1.329-.102 2.402.026 3.118.128.537.077 1.048.204 1.56.358.894.28 1.712.664 2.505 1.15a.482.482 0 0 0 .204.051H21.906v.026c-.05.076-.076.128-.127.204-.307.486-.588.972-.741 1.534-.026.051-.026.102.025.179.818 1.176 1.074 2.48.742 3.885-.358 1.202-1.048 2.148-2.122 2.838Z"/><path d="M7.72 11.784c-.818 0-1.508.69-1.508 1.509 0 .843.69 1.508 1.533 1.508.818 0 1.509-.69 1.509-1.534 0-.818-.665-1.483-1.534-1.483Zm.025 2.301a.78.78 0 0 1-.792-.792c0-.435.332-.767.767-.767.434 0 .767.332.792.767.026.434-.332.767-.767.792ZM17.101 9.612a3.76 3.76 0 0 0-3.68 3.732c0 2.07 1.686 3.783 3.757 3.757a3.748 3.748 0 0 0 3.758-3.757A3.727 3.727 0 0 0 17.1 9.612Zm.18 6.007a2.327 2.327 0 0 1-2.43-2.326c0-1.33 1.1-2.352 2.327-2.327a2.318 2.318 0 0 1 2.326 2.327 2.333 2.333 0 0 1-2.224 2.326Z"/><path d="M13.983 9.867c.818-.767 1.814-1.15 2.94-1.252-1.33-.588-2.736-.844-4.193-.87-1.636-.025-3.246.205-4.755.844 1.15.077 2.148.46 2.991 1.227.844.767 1.33 1.738 1.508 2.863.205-1.1.69-2.045 1.509-2.812Z"/></g><defs><clipPath id="a"><path fill="#fff" d="M0 0h25v25H0z"/></clipPath></defs></svg>
